!!!COM: Bach, Johann Sebastian
!!!OPR: Joh. Seb. Bachs vierstimmige Choralgesänge
!!!XEN: Four-part Chorales
!!!OTL: Chorale 43. Die Nacht ist kommen
!!!SCT: BWV 296
!!!SCA: Thematisch-systematisches Verzeichnis der musikalischen Werke Johann Sebastian Bach: Bach-Werke-Verzeichnis (Schmieder)
!!!YOR: Bach Gesellschaft Edition xxxix
!!!ENC: Steven Rasmussen
!!!CDT: 1685/3//-1750/7/28/
!!!OCY: Deutschland
!!!YEC: Copyright (c) 1994, 2000 Center for Computer Assisted Research in the Humanities
!!!YEM: Rights to all derivative editions reserved
!!!YEN: United States of America
**kern	**kern	**kern	**kern	**silbe
*I:[BASSO]	*I:[TENORE]	*I:[ALTO]	*I:[SOPRANO]	*I:[SOPRANO]
*clefF4	*clefGv2	*clefG2	*clefG2	*
*k[]	*k[]	*k[]	*k[]	*
*C:	*C:	*C:	*C:	*
*M4/4	*M4/4	*M4/4	*M4/4	*
4G	4B	4d	4g	Die
=1	=1	=1	=1	=1
4F#	4A	4d	4a	Nacht
4Fn	4G	4d	4b	ist
4E	4G	4e	2cc	kom-
4F#	4A	4d	.	.
=2	=2	=2	=2	=2
2G;	2G;	2d;	2b;	-men,
4C#	4G	4e	4a	drin
4D	8FL	8dL	4a	wir
.	8EJ	8cJ	.	.
=3	=3	=3	=3	=3
4D	4E	4B	4g#	ru-
4C	8EL	4e	4a	-hen
.	8AJ	.	.	.
4D	4A	4f	2b	sol-
4E	4G#	8eL	.	.
.	.	8dJ	.	.
=4	=4	=4	=4	=4
2AA;	2A;	2c;	2a;	-len;
4r	4r	4r	4r	.
4A	4e	4a	4cc	Gott
=5	=5	=5	=5	=5
4E	8eL	8gL	4cc	walt
.	8dJ	8fJ	.	.
4C	4e	4g	8ccL	zum
.	.	.	8bJ	.
8FL	8cL	8gL	2a	From-
8G	8c#	16fL	.	.
.	.	16eJ	.	.
8F	8d	8f	.	.
8EJ	8eJ	8gJ	.	.
=6	=6	=6	=6	=6
2D;	2f;	2a;	2dd;	-men
4r	4r	4r	4r	.
8GL	4d	4g	4b	nach
8FJ	.	.	.	.
=7	=7	=7	=7	=7
4E	4e	4g	4cc	sein'm
4F#	4d	4a	4a	Wohl-
4G	4.d	8aL	4b	-ge-
.	.	8gJ	.	.
4D	.	8gL	4a	-fal-
.	8c	8f#J	.	.
=8	=8	=8	=8	=8
2GG;	2B;	2d;	2g;	-len,
4r	4r	4r	4r	.
4G	4B	4g	4dd	dass
=9	=9	=9	=9	=9
4F#	4A	8aL	4dd	wir
.	.	8dJ	.	.
8GL	4B	4g	4dd	uns
8FnJ	.	.	.	.
8EL	2c	8gL	2cc	le-
8D	.	8f	.	.
8E	.	8g	.	.
8CJ	.	8eJ	.	.
=10	=10	=10	=10	=10
2F;	2c;	2f;	2a;	-gen
4r	4r	4r	4r	.
4E	4e	4g	4cc	in
=11	=11	=11	=11	=11
4F#	4d	4a	4cc	sein'm
4G	4d	8aL	4b	G'leit
.	.	8gJ	.	.
4C	8eL	4g	8ccL	und
.	8dJ	.	8bJ	.
4C#	4e	4g	4a	Se-
=12	=12	=12	=12	=12
2D;	2d;	2f#;	2a;	-gen,
4r	4r	4r	4r	.
4BB	4d	4g	4dd	sein'n
=13	=13	=13	=13	=13
4E	8GL	8gL	4cc	Will'n
.	8AJ	8f#J	.	.
8DL	8BL	4g	4b	zu
8CJ	8eJ	.	.	.
4D	8A	4g	2a	pfle-
.	4d	.	.	.
4DD	.	4f#	.	.
.	8c	.	.	.
=14	=14	=14	=14	=14
1GG;	1B;	1d;	1g;	-gen.
==|!	==|!	==|!	==|!	==|!
*-	*-	*-	*-	*-
!!!RWG: Key is interpreted using the Humdrum key tool.
!!!URL-pdf: https://s9.imslp.org/files/imglnks/usimg/6/6b/IMSLP24489-PMLP09471-CCARH_Bach_Chorales.pdf#page=30 Musedata edition
!!!URL-pdf: https://s9.imslp.org/files/imglnks/usimg/7/7a/IMSLP04155-Bach_-_BGA_253-438.pdf#page=24 	Bach-Gesellschaft Ausgabe, Band 39 (pp.175-276) Leipzig: Breitkopf und Härtel, 1892. Plate B.W. XXXIX.
!!!END: 1994/05/17
!!!EMD: Converted from MuseData to Humdrum Dec 19, 2000, by Andreas Kornstaedt using muse2kern.
!!!EED: Craig Stuart Sapp
!!!EEV: 2024/03/31
!!!filter-keyboard: satb2gs
!!!title: @{OTL} (@{SCT})
